X: 2
T: Whiskey Before Breakfast
R: reel
M: 4/4
L: 1/8
K: Dmaj
|: D2 G2 GA B2|c2 d2 dc BA|G2 c2 cc B2|1 BB AB AG _GE :|2 BB AG _G2 =G2|:g2 gg g2 gg|gf e2 d3 z| a2 aa a3a |b c'b a2 g2 z|g2 bg f2 af|e2 ge d2


Tune 602	Setting 22315

